assets/images/logo/logo.svg

<svg fill="none" height="56" viewBox="0 0 157 56" width="157" xmlns="http://www.w3.org/2000/svg"><path d="m60.7033 14.9004c2.3053 0 4.3067.38 6.004 1.14 1.7227.76 3.04 1.8493 3.952 3.268s1.368 3.1033 1.368 5.054c0 1.9253-.456 3.61-1.368 5.054-.912 1.4187-2.2293 2.508-3.952 3.268-1.6973.76-3.6987 1.14-6.004 1.14h-6.004v7.676h-4.94v-26.6zm-.228 14.744c2.1533 0 3.7873-.456 4.902-1.368s1.672-2.2167 1.672-3.914-.5573-3.002-1.672-3.914-2.7487-1.368-4.902-1.368h-5.776v10.564zm18.9852-14.744h4.94v22.42h13.908v4.18h-18.848zm42.6855 20.444h-13.3l-2.622 6.156h-5.092l11.97-26.6h4.864l12.008 26.6h-5.168zm-1.634-3.876-5.016-11.628-4.978 11.628zm25.225.646v9.386h-4.94v-9.31l-10.45-17.29h5.282l7.79 12.958 7.866-12.958h4.864z" fill="#090e34"/><path d="m20 47.5c11.0457 0 20-8.9543 20-20s-8.9543-20-20-20-20 8.9543-20 20 8.9543 20 20 20z" fill="#3056d3"/><path clip-rule="evenodd" d="m12.5752 31.182c-2.1213-3.5353-1.7676-6.7176 1.0607-9.5459 4.2426-4.2427 7.9549-1.591 10.6066-3.182 1.768-1.0607 2.475-2.8283 2.1213-5.3033 2.1213 3.5353 1.7677 6.7176-1.0606 9.5459-4.2427 4.2427-7.955 1.591-10.6066 3.182-1.768 1.0607-2.475 2.8283-2.1214 5.3033zm1.0607 11.6673c-2.1213-3.5353-1.7677-6.7176 1.0607-9.546 4.2426-4.2426 7.9549-1.591 10.6066-3.1819 1.7679-1.0607 2.4749-2.8284 2.1213-5.3033 2.1213 3.5353 1.7676 6.7176-1.0607 9.5459-4.2426 4.2426-7.9549 1.591-10.6066 3.182-1.768 1.0606-2.475 2.8283-2.1213 5.3033z" fill="#fff" fill-rule="evenodd"/></svg>

<svg width="157" height="56" viewBox="0 0 157 56" fill="none" xmlns="http://www.w3.org/2000/svg">
<path d="M60.7033 14.9004C63.0086 14.9004 65.01 15.2804 66.7073 16.0404C68.43 16.8004 69.7473 17.8897 70.6593 19.3084C71.5713 20.7271 72.0273 22.4117 72.0273 24.3624C72.0273 26.2877 71.5713 27.9724 70.6593 29.4164C69.7473 30.8351 68.43 31.9244 66.7073 32.6844C65.01 33.4444 63.0086 33.8244 60.7033 33.8244H54.6993V41.5004H49.7593V14.9004H60.7033ZM60.4753 29.6444C62.6286 29.6444 64.2626 29.1884 65.3773 28.2764C66.492 27.3644 67.0493 26.0597 67.0493 24.3624C67.0493 22.6651 66.492 21.3604 65.3773 20.4484C64.2626 19.5364 62.6286 19.0804 60.4753 19.0804H54.6993V29.6444H60.4753ZM79.4605 14.9004H84.4005V37.3204H98.3085V41.5004H79.4605V14.9004ZM122.146 35.3444H108.846L106.224 41.5004H101.132L113.102 14.9004H117.966L129.974 41.5004H124.806L122.146 35.3444ZM120.512 31.4684L115.496 19.8404L110.518 31.4684H120.512ZM145.737 32.1144V41.5004H140.797V32.1904L130.347 14.9004H135.629L143.419 27.8584L151.285 14.9004H156.149L145.737 32.1144Z" fill="#090E34"/>
<path d="M20 47.5C31.0457 47.5 40 38.5457 40 27.5C40 16.4543 31.0457 7.5 20 7.5C8.9543 7.5 0 16.4543 0 27.5C0 38.5457 8.9543 47.5 20 47.5Z" fill="#3056D3"/>
<path fill-rule="evenodd" clip-rule="evenodd" d="M12.5 25C13.4998 21.0002 16.0002 19 20 19C26 19 26.75 23.5 29.75 24.25C31.7502 24.7502 33.5 24.0002 35 22C34.0002 25.9998 31.4998 28 27.5 28C21.5 28 20.75 23.5 17.75 22.75C15.7498 22.2498 14 22.9998 12.5 25ZM5 34C5.99984 30.0002 8.50016 28 12.5 28C18.5 28 19.25 32.5 22.25 33.25C24.2502 33.7502 26 33.0002 27.5 31C26.5002 34.9998 23.9998 37 20 37C14 37 13.25 32.5 10.25 31.75C8.24984 31.2498 6.5 31.9998 5 34Z" fill="white"/>
</svg>
